X: 20562
T: GUMBO CHAFF
C:
%R: polka, march, reel
B: Elias Howe "The Musician's Companion" 1843 p.56 #2
S: http://imslp.org/wiki/The_Musician's_Companion_(Howe,_Elias)
Z: 2015 John Chambers <jc:trillian.mit.edu>
M: 1/4
L: 1/16
K: A
% - - - - - - - - - - - - - - - - - - - - - - - - -
E2 |\
A2A2 A2cd | e2fe d2B2 | B2B2 Bcde | f2gf e2c2 |\
e2e2 a3e | e2fe e2c2 | A2A2 ABcd |1 e2fe e2 :|2 ecdB A2 :|
|: ce |\
d2B2 B2Bd | c2A2 A2ce | fagf edcB | c2A2A2 Ae |\
d2B2 Bfed | c2A2 A2ce | fagf edcB | A2a2a2 :|
% - - - - - - - - - - - - - - - - - - - - - - - - -

%%sep 1 1 500

